X:1
T:Six White Boomers
M:4/4
L:1/8
K:Bb
 B,B, B,B, FFF-F| GG E/2 G3/2 F4| DF B,3/2 C/2 D2 B,C| D2 B,B, F3 F|\
 B,B, B,B,F-F F2| GG EG F4| DF B,C D2 B,/2- C3/2| DD B,B, F3- F| B,B, B,B, F F2- F|\
 GG EG F4| B,B, B,B, D2 F2| CE DC B,4| B,2 B,2 D F3| B2E-G G F3| DF B,C D2 B,C|\
 D2 B,2 F4| B,2 B,2 D F3| B2E-G G F3-| FB, B,C D2 C2| B,8|
